public/game/game-countdown.svg

<svg width="357" height="344" viewBox="0 0 357 344" fill="none" xmlns="http://www.w3.org/2000/svg">
<path d="M17.7071 174.707L187 344V4L17.7071 173.293C17.3166 173.683 17.3166 174.317 17.7071 174.707Z" fill="url(#paint0_radial_16_157)"/>
<mask id="mask0_16_157" style="mask-type:alpha" maskUnits="userSpaceOnUse" x="17" y="4" width="170" height="340">
<path d="M17.7071 174.707L187 344V4L17.7071 173.293C17.3166 173.683 17.3166 174.317 17.7071 174.707Z" fill="url(#paint1_radial_16_157)"/>
</mask>
<g mask="url(#mask0_16_157)">
<path d="M17.7344 174L158.859 32.875" stroke="#0E6291" stroke-linecap="round"/>
<path opacity="0.3" d="M17.7344 174L121.062 277.438" stroke="#0E6291" stroke-linecap="round"/>
</g>
<g filter="url(#filter0_if_16_157)">
<path fill-rule="evenodd" clip-rule="evenodd" d="M180.476 1.70711C180.866 2.09763 180.866 2.73079 180.476 3.12132L10.7946 172.803C10.4041 173.193 10.4041 173.826 10.7946 174.217L130.976 294.398C131.366 294.789 131.366 295.422 130.976 295.812C130.585 296.203 129.952 296.203 129.562 295.812L8.67326 174.924C7.89221 174.143 7.89222 172.877 8.67327 172.096L179.061 1.70711C179.452 1.31658 180.085 1.31658 180.476 1.70711Z" fill="url(#paint2_linear_16_157)"/>
</g>
<g filter="url(#filter1_f_16_157)">
<path d="M5.82843 174.174C4.26633 172.612 4.26633 170.079 5.82843 168.517L42.0466 132.299C43.6087 130.737 46.1413 130.737 47.7034 132.299L49.2059 133.802C50.768 135.364 50.768 137.896 49.2059 139.458L12.9877 175.677C11.4256 177.239 8.89297 177.239 7.33087 175.677L5.82843 174.174Z" fill="url(#paint3_linear_16_157)" fill-opacity="0.85"/>
</g>
<g filter="url(#filter2_di_16_157)">
<path d="M7.54505 174.078C7.1537 173.687 7.15465 173.052 7.54716 172.662L45.0225 135.409C45.4133 135.021 46.0449 135.022 46.4346 135.411L46.8574 135.834C47.2487 136.226 47.2478 136.86 46.8553 137.251L9.37995 174.503C8.98909 174.892 8.35755 174.891 7.96785 174.501L7.54505 174.078Z" fill="#8DEFEE"/>
</g>
<defs>
<filter id="filter0_if_16_157" x="7.0874" y="0.414185" width="175.681" height="296.691" filterUnits="userSpaceOnUse" color-interpolation-filters="sRGB">
<feFlood flood-opacity="0" result="BackgroundImageFix"/>
<feBlend mode="normal" in="SourceGraphic" in2="BackgroundImageFix" result="shape"/>
<feColorMatrix in="SourceAlpha" type="matrix" values="0 0 0 0 0 0 0 0 0 0 0 0 0 0 0 0 0 0 127 0" result="hardAlpha"/>
<feOffset dx="2"/>
<feGaussianBlur stdDeviation="1"/>
<feComposite in2="hardAlpha" operator="arithmetic" k2="-1" k3="1"/>
<feColorMatrix type="matrix" values="0 0 0 0 0.0196078 0 0 0 0 0.792157 0 0 0 0 1 0 0 0 0.05 0"/>
<feBlend mode="normal" in2="shape" result="effect1_innerShadow_16_157"/>
<feGaussianBlur stdDeviation="0.5" result="effect2_foregroundBlur_16_157"/>
</filter>
<filter id="filter1_f_16_157" x="0.656738" y="127.128" width="53.7207" height="53.7206" filterUnits="userSpaceOnUse" color-interpolation-filters="sRGB">
<feFlood flood-opacity="0" result="BackgroundImageFix"/>
<feBlend mode="normal" in="SourceGraphic" in2="BackgroundImageFix" result="shape"/>
<feGaussianBlur stdDeviation="2" result="effect1_foregroundBlur_16_157"/>
</filter>
<filter id="filter2_di_16_157" x="5.25195" y="134.118" width="43.8984" height="43.6754" filterUnits="userSpaceOnUse" color-interpolation-filters="sRGB">
<feFlood flood-opacity="0" result="BackgroundImageFix"/>
<feColorMatrix in="SourceAlpha" type="matrix" values="0 0 0 0 0 0 0 0 0 0 0 0 0 0 0 0 0 0 127 0" result="hardAlpha"/>
<feOffset dy="1"/>
<feGaussianBlur stdDeviation="1"/>
<feComposite in2="hardAlpha" operator="out"/>
<feColorMatrix type="matrix" values="0 0 0 0 0.0235294 0 0 0 0 0.215686 0 0 0 0 0.486275 0 0 0 1 0"/>
<feBlend mode="screen" in2="BackgroundImageFix" result="effect1_dropShadow_16_157"/>
<feBlend mode="normal" in="SourceGraphic" in2="effect1_dropShadow_16_157" result="shape"/>
<feColorMatrix in="SourceAlpha" type="matrix" values="0 0 0 0 0 0 0 0 0 0 0 0 0 0 0 0 0 0 127 0" result="hardAlpha"/>
<feOffset dy="-1"/>
<feGaussianBlur stdDeviation="0.5"/>
<feComposite in2="hardAlpha" operator="arithmetic" k2="-1" k3="1"/>
<feColorMatrix type="matrix" values="0 0 0 0 0 0 0 0 0 0.659091 0 0 0 0 1 0 0 0 0.56 0"/>
<feBlend mode="multiply" in2="shape" result="effect2_innerShadow_16_157"/>
</filter>
<radialGradient id="paint0_radial_16_157" cx="0" cy="0" r="1" gradientUnits="userSpaceOnUse" gradientTransform="translate(17 174) rotate(-42.1485) scale(184.784 153.482)">
<stop offset="0.350124" stop-color="#004687" stop-opacity="0.86"/>
<stop offset="1" stop-color="#004687" stop-opacity="0"/>
</radialGradient>
<radialGradient id="paint1_radial_16_157" cx="0" cy="0" r="1" gradientUnits="userSpaceOnUse" gradientTransform="translate(17 174) rotate(-42.1485) scale(184.784 153.482)">
<stop offset="0.350124" stop-color="#004687" stop-opacity="0.86"/>
<stop offset="1" stop-color="#004687" stop-opacity="0"/>
</radialGradient>
<linearGradient id="paint2_linear_16_157" x1="11.1833" y1="172.604" x2="146.967" y2="195.348" gradientUnits="userSpaceOnUse">
<stop stop-color="#05CAFF" stop-opacity="0.4"/>
<stop offset="1" stop-color="#05CAFF" stop-opacity="0"/>
</linearGradient>
<linearGradient id="paint3_linear_16_157" x1="31.6477" y1="157.582" x2="23.4241" y2="148.594" gradientUnits="userSpaceOnUse">
<stop stop-color="#033572"/>
<stop offset="1" stop-color="#033572" stop-opacity="0.8"/>
</linearGradient>
</defs>
</svg>

<svg xmlns="http://www.w3.org/2000/svg" width="357" height="344" fill="none" viewBox="0 0 357 344"><path fill="url(#a)" d="M17.707 174.707 187 344V4L17.707 173.293a1 1 0 0 0 0 1.414"/><mask id="c" width="170" height="340" x="17" y="4" maskUnits="userSpaceOnUse" style="mask-type:alpha"><path fill="url(#b)" d="M17.707 174.707 187 344V4L17.707 173.293a1 1 0 0 0 0 1.414"/></mask><g stroke="#0e6291" stroke-linecap="round" mask="url(#c)"><path d="M17.734 174 158.86 32.875"/><path d="m17.734 174 103.328 103.438" opacity=".3"/></g><g filter="url(#d)"><path fill="url(#e)" fill-rule="evenodd" d="M180.476 1.707a1 1 0 0 1 0 1.414L10.795 172.803a1 1 0 0 0 0 1.414l120.181 120.181a1 1 0 0 1-1.414 1.414L8.673 174.924a2 2 0 0 1 0-2.828L179.061 1.707a1 1 0 0 1 1.415 0" clip-rule="evenodd"/></g><g filter="url(#f)"><path fill="url(#g)" fill-opacity=".85" d="M5.828 174.174a4 4 0 0 1 0-5.657l36.219-36.218a4 4 0 0 1 5.656 0l1.503 1.503a4 4 0 0 1 0 5.656l-36.218 36.219a4 4 0 0 1-5.657 0z"/></g><g filter="url(#h)"><path fill="#8defee" d="M7.545 174.078a1 1 0 0 1 .002-1.416l37.476-37.253a1 1 0 0 1 1.412.002l.422.423a1 1 0 0 1-.002 1.417L9.38 174.503a1 1 0 0 1-1.412-.002z"/></g><defs><filter id="d" width="175.681" height="296.691" x="7.087" y=".414" color-interpolation-filters="sRGB" filterUnits="userSpaceOnUse"><feFlood flood-opacity="0" result="BackgroundImageFix"/><feBlend in="SourceGraphic" in2="BackgroundImageFix" result="shape"/><feColorMatrix in="SourceAlpha" result="hardAlpha" values="0 0 0 0 0 0 0 0 0 0 0 0 0 0 0 0 0 0 127 0"/><feOffset dx="2"/><feGaussianBlur stdDeviation="1"/><feComposite in2="hardAlpha" k2="-1" k3="1" operator="arithmetic"/><feColorMatrix values="0 0 0 0 0.0196078 0 0 0 0 0.792157 0 0 0 0 1 0 0 0 0.05 0"/><feBlend in2="shape" result="effect1_innerShadow_16_157"/><feGaussianBlur result="effect2_foregroundBlur_16_157" stdDeviation=".5"/></filter><filter id="f" width="53.721" height="53.721" x=".657" y="127.128" color-interpolation-filters="sRGB" filterUnits="userSpaceOnUse"><feFlood flood-opacity="0" result="BackgroundImageFix"/><feBlend in="SourceGraphic" in2="BackgroundImageFix" result="shape"/><feGaussianBlur result="effect1_foregroundBlur_16_157" stdDeviation="2"/></filter><filter id="h" width="43.898" height="43.675" x="5.252" y="134.118" color-interpolation-filters="sRGB" filterUnits="userSpaceOnUse"><feFlood flood-opacity="0" result="BackgroundImageFix"/><feColorMatrix in="SourceAlpha" result="hardAlpha" values="0 0 0 0 0 0 0 0 0 0 0 0 0 0 0 0 0 0 127 0"/><feOffset dy="1"/><feGaussianBlur stdDeviation="1"/><feComposite in2="hardAlpha" operator="out"/><feColorMatrix values="0 0 0 0 0.0235294 0 0 0 0 0.215686 0 0 0 0 0.486275 0 0 0 1 0"/><feBlend in2="BackgroundImageFix" mode="screen" result="effect1_dropShadow_16_157"/><feBlend in="SourceGraphic" in2="effect1_dropShadow_16_157" result="shape"/><feColorMatrix in="SourceAlpha" result="hardAlpha" values="0 0 0 0 0 0 0 0 0 0 0 0 0 0 0 0 0 0 127 0"/><feOffset dy="-1"/><feGaussianBlur stdDeviation=".5"/><feComposite in2="hardAlpha" k2="-1" k3="1" operator="arithmetic"/><feColorMatrix values="0 0 0 0 0 0 0 0 0 0.659091 0 0 0 0 1 0 0 0 0.56 0"/><feBlend in2="shape" mode="multiply" result="effect2_innerShadow_16_157"/></filter><radialGradient id="a" cx="0" cy="0" r="1" gradientTransform="rotate(-42.148 234.268 64.942)scale(184.784 153.482)" gradientUnits="userSpaceOnUse"><stop offset=".35" stop-color="#004687" stop-opacity=".86"/><stop offset="1" stop-color="#004687" stop-opacity="0"/></radialGradient><radialGradient id="b" cx="0" cy="0" r="1" gradientTransform="rotate(-42.148 234.268 64.942)scale(184.784 153.482)" gradientUnits="userSpaceOnUse"><stop offset=".35" stop-color="#004687" stop-opacity=".86"/><stop offset="1" stop-color="#004687" stop-opacity="0"/></radialGradient><linearGradient id="e" x1="11.183" x2="146.967" y1="172.604" y2="195.348" gradientUnits="userSpaceOnUse"><stop stop-color="#05caff" stop-opacity=".4"/><stop offset="1" stop-color="#05caff" stop-opacity="0"/></linearGradient><linearGradient id="g" x1="31.648" x2="23.424" y1="157.582" y2="148.594" gradientUnits="userSpaceOnUse"><stop stop-color="#033572"/><stop offset="1" stop-color="#033572" stop-opacity=".8"/></linearGradient></defs></svg>
